<?xml version="1.0" encoding="UTF-8"?>
<map version="1.10" tiledversion="1.12.2" orientation="orthogonal" renderorder="right-down" width="40" height="40" tilewidth="32" tileheight="32" infinite="0" nextlayerid="4" nextobjectid="25">
 <editorsettings>
  <export target="mapa dark game.json" format="json"/>
 </editorsettings>
 <tileset firstgid="1" source="suelo.tsx"/>
 <tileset firstgid="65" source="props.tsx"/>
 <tileset firstgid="321" source="arboles.tsx"/>
 <layer id="1" name="Capa de patrones 1" width="40" height="40">
  <data encoding="csv">
19,19,19,19,19,19,19,19,19,19,19,19,19,19,19,19,19,19,19,19,19,19,19,19,19,19,19,19,19,19,19,19,19,19,19,19,19,19,19,19,
19,19,19,19,19,19,19,19,19,19,19,19,19,19,19,19,19,19,19,19,19,19,19,19,19,19,19,19,19,19,19,19,19,19,19,19,19,19,19,19,
19,19,19,19,19,19,19,19,19,19,19,19,19,19,19,19,19,19,19,19,19,19,19,19,19,19,19,19,19,19,19,19,19,19,19,19,19,19,19,19,
19,19,19,19,19,2684354581,19,19,19,19,19,19,19,19,30,19,19,19,19,19,19,30,19,19,13,19,19,19,19,19,19,19,2684354581,19,19,19,19,19,19,19,
19,19,19,19,19,19,19,19,19,19,19,19,19,19,19,19,19,19,19,19,19,19,19,19,19,19,19,19,19,19,19,19,19,19,19,19,19,19,19,19,
19,19,19,19,19,19,19,19,19,19,19,19,19,19,19,19,19,19,19,19,19,19,19,19,19,19,19,19,19,19,19,19,19,19,19,19,19,19,19,19,
19,19,19,2684354581,2684354581,19,19,13,30,19,19,19,19,19,19,19,19,19,19,19,13,19,19,30,19,19,19,19,19,19,19,19,19,2684354581,19,2684354581,2684354581,19,19,19,
19,19,19,19,2684354581,19,30,19,19,19,19,19,19,19,19,19,19,19,19,19,19,19,19,19,19,19,19,19,19,19,19,19,19,2684354581,2684354581,19,19,19,19,19,
19,19,19,19,19,19,19,19,19,19,19,19,19,19,19,19,19,19,19,19,19,19,21,19,19,19,19,30,19,19,19,19,19,13,30,19,19,19,19,19,
19,19,19,19,19,19,19,19,19,19,19,19,19,21,19,19,19,19,19,19,19,19,19,19,19,19,19,19,19,19,19,19,19,19,2684354581,19,19,19,19,19,
19,19,19,19,19,19,19,19,19,19,19,19,19,19,19,19,19,19,19,19,19,19,19,19,19,19,19,2684354581,19,19,19,19,19,19,19,19,19,19,19,19,
19,19,19,19,19,19,19,19,19,19,19,19,19,19,19,19,19,19,19,19,19,19,19,19,19,13,19,19,19,19,19,19,19,19,19,13,19,19,19,19,
19,19,19,19,19,19,19,19,19,19,19,19,13,19,19,19,19,19,19,19,19,19,19,19,19,19,19,19,19,19,19,19,19,19,19,19,19,19,19,19,
19,19,19,19,19,19,19,19,19,19,19,19,19,19,19,19,19,19,19,19,19,19,19,19,19,19,19,19,19,19,19,19,19,19,30,19,19,19,19,19,
19,19,30,19,19,19,19,19,19,19,19,19,19,19,19,19,19,19,37,33,33,33,33,19,19,19,19,19,19,19,19,19,19,2684354581,19,19,19,19,19,19,
19,19,19,19,19,19,19,19,19,19,19,19,19,19,19,19,33,33,33,33,33,33,33,33,33,19,19,19,19,19,19,19,19,19,19,19,19,19,19,19,
19,19,19,19,19,19,19,21,19,19,19,19,19,19,19,41,33,49,33,41,33,33,49,33,33,33,19,19,19,19,19,19,19,19,19,19,19,19,19,19,
19,19,19,13,19,19,19,19,19,19,19,19,19,19,33,33,33,33,33,33,33,33,41,33,33,33,33,19,19,19,19,19,19,19,19,19,2684354581,19,19,19,
19,19,19,19,19,19,19,19,19,19,19,19,19,33,33,58,33,42,33,49,33,33,33,33,33,33,33,33,19,19,19,13,13,19,19,19,19,19,13,19,
19,19,19,19,19,19,19,19,19,19,19,19,19,33,33,33,33,33,33,33,33,33,33,33,33,41,33,33,19,19,19,19,19,19,19,19,19,19,19,19,
19,19,19,19,19,19,19,19,19,19,19,19,19,51,33,33,50,33,33,33,49,33,33,50,33,33,33,33,19,19,19,19,19,19,19,19,19,19,19,19,
19,19,19,19,19,19,21,19,19,21,19,19,19,33,33,33,41,50,33,33,33,33,33,33,33,58,33,44,19,19,19,19,19,19,19,19,19,19,19,19,
19,19,19,19,19,19,19,19,19,19,19,19,19,19,33,33,33,50,41,33,33,33,41,33,33,33,33,19,19,19,19,19,19,19,19,19,19,19,19,19,
19,19,19,19,19,19,19,19,19,19,19,19,19,19,19,51,33,33,33,33,41,33,33,50,33,33,19,19,19,19,19,19,19,19,19,13,19,19,19,19,
19,19,13,19,19,19,19,19,19,19,19,19,19,19,19,19,33,33,49,33,33,33,33,33,33,19,19,19,19,19,19,19,19,19,2684354581,13,19,19,19,19,
19,19,19,19,19,19,19,21,19,13,19,19,19,19,19,19,19,19,51,33,33,46,47,19,19,19,19,19,19,19,19,19,19,19,19,19,19,19,19,19,
19,19,19,19,19,19,19,19,19,30,30,19,19,19,19,19,19,19,19,33,34,33,57,19,19,19,19,19,19,19,19,19,19,19,19,19,19,19,19,19,
19,19,19,19,19,19,19,19,19,19,30,19,19,19,19,19,19,19,19,41,42,41,42,19,19,19,19,19,19,30,19,19,19,19,19,19,19,19,19,19,
19,19,19,19,19,19,19,19,19,19,19,19,19,2684354581,19,19,19,19,19,41,42,49,50,19,19,19,30,19,19,19,13,19,19,19,19,19,19,19,19,19,
19,19,19,19,2684354581,19,19,19,19,19,19,19,19,19,19,19,19,19,19,59,34,33,34,19,19,19,19,19,19,19,19,19,19,19,19,19,19,19,19,19,
19,19,19,19,19,19,19,19,19,19,19,19,19,19,19,19,19,19,19,43,42,41,42,19,19,19,19,19,19,19,19,19,19,19,2684354581,19,19,19,19,19,
19,19,19,19,19,19,19,2684354581,19,19,19,19,19,19,19,19,19,19,19,49,50,49,58,19,19,19,19,19,19,19,13,19,2684354581,19,19,19,19,19,19,19,
19,19,19,19,19,19,19,2684354581,13,19,19,19,19,19,19,19,19,19,33,34,33,34,19,19,19,19,19,13,19,19,19,19,19,19,19,19,19,19,19,19,
19,19,19,13,19,19,19,19,19,19,19,19,19,19,19,19,19,19,41,41,42,42,19,19,19,19,19,19,19,19,19,19,19,19,19,19,19,19,19,19,
19,19,19,19,19,19,30,19,19,19,19,19,19,19,19,19,19,19,59,50,49,50,19,19,19,19,19,19,19,19,19,19,19,19,19,19,19,19,19,19,
19,19,19,19,19,19,19,19,19,19,19,19,19,19,19,19,19,19,19,33,33,33,34,19,19,19,19,19,19,19,19,19,19,19,19,19,19,19,19,19,
19,19,19,19,19,19,19,19,19,19,19,19,19,19,19,19,19,19,19,41,41,33,34,19,19,19,19,19,19,19,19,19,19,19,19,19,19,19,19,19,
19,19,19,19,19,19,19,19,19,19,19,19,19,19,19,19,19,19,19,59,41,42,33,34,19,19,19,19,19,19,19,19,19,19,19,19,19,19,19,19,
19,19,19,19,19,19,19,19,19,19,19,19,19,19,19,19,19,19,19,19,19,41,41,42,19,19,19,19,19,19,19,19,19,19,19,19,19,19,19,19,
19,19,19,19,19,19,19,19,19,19,19,19,19,19,19,19,19,19,19,19,19,49,49,58,19,19,19,19,19,19,19,19,19,19,19,19,19,19,19,19
</data>
 </layer>
 <layer id="2" name="arboles" width="40" height="40">
  <data encoding="csv">
0,0,0,0,0,0,0,0,0,0,0,0,0,0,0,0,0,0,0,0,0,0,0,0,0,0,0,0,0,0,0,0,0,0,0,0,0,0,0,0,
0,0,0,0,0,0,0,0,0,0,0,0,0,0,0,0,0,0,0,0,0,0,0,0,0,0,0,0,0,0,0,0,0,0,0,0,0,0,0,0,
0,0,0,0,0,0,0,0,0,0,0,0,0,0,0,0,0,0,0,0,0,0,0,0,0,0,0,0,0,0,0,0,0,0,0,0,0,0,0,0,
0,0,0,0,0,0,0,0,0,0,0,0,0,0,0,0,0,0,0,0,0,0,0,0,0,0,0,0,0,0,0,0,0,0,0,0,0,0,0,0,
0,0,0,0,0,0,0,0,0,0,0,0,0,0,0,0,0,0,0,0,0,0,0,0,0,0,0,0,0,0,0,0,0,0,0,0,0,0,0,0,
0,0,0,0,0,0,0,0,0,0,0,0,0,0,0,0,0,0,0,0,0,0,0,0,0,0,0,0,0,0,0,0,0,0,0,0,0,0,0,0,
0,0,0,0,0,0,0,0,0,0,0,0,0,0,0,0,0,0,0,0,0,0,0,0,0,0,0,0,0,0,0,0,0,0,0,0,0,0,0,0,
0,0,0,0,0,0,0,0,0,0,0,0,0,0,0,0,0,0,0,0,0,0,0,0,0,0,0,0,0,0,0,0,0,0,0,0,0,0,0,0,
0,0,0,0,0,0,0,0,0,0,0,0,0,0,0,0,0,0,0,0,0,0,0,0,0,0,0,0,0,326,327,328,329,0,0,0,0,0,0,0,
0,0,0,0,0,0,0,0,0,0,0,0,0,0,0,0,0,0,0,0,0,0,0,0,0,0,0,0,0,342,343,344,345,0,0,0,0,0,0,0,
0,0,0,0,0,0,0,0,0,0,0,0,0,0,0,0,310,0,0,0,0,0,0,0,0,0,0,0,0,358,359,360,361,0,0,0,0,0,0,0,
0,0,0,0,0,0,0,0,0,0,0,0,0,0,0,0,0,0,0,0,0,0,0,0,0,0,0,0,0,374,375,376,377,0,0,0,0,0,0,0,
0,0,0,0,0,0,0,326,327,328,329,0,0,0,0,0,0,0,0,0,0,0,0,0,0,310,0,0,0,390,391,392,393,0,0,0,0,0,0,0,
0,0,0,0,0,0,0,342,343,344,345,0,0,0,0,0,0,0,0,0,0,0,0,0,0,0,0,0,0,0,0,0,0,0,0,0,309,0,0,0,
0,0,0,0,0,0,0,358,359,360,361,0,0,0,0,0,0,0,0,0,0,0,0,0,0,0,0,0,273,274,0,0,0,0,0,0,0,0,0,0,
0,0,0,0,0,0,0,374,375,376,377,0,0,0,0,0,0,74,75,76,0,0,74,75,76,0,0,0,289,290,0,0,0,0,0,0,0,0,0,0,
0,0,0,0,0,0,0,390,391,392,393,0,0,307,0,0,0,90,91,92,0,0,90,91,92,0,0,0,0,0,0,0,0,0,0,0,0,0,0,0,
0,0,0,0,0,0,0,0,0,0,0,0,0,0,0,104,0,0,0,0,0,0,0,0,0,104,0,0,0,0,0,0,0,0,0,0,0,0,0,0,
0,0,0,0,0,0,0,0,0,0,0,0,0,0,0,120,0,0,0,204,205,206,207,0,0,120,0,0,0,0,0,0,0,0,0,0,0,0,0,0,
0,0,0,0,0,0,0,0,0,0,0,0,0,0,0,136,0,0,0,220,221,222,223,0,0,136,0,0,0,0,0,0,0,0,0,0,0,0,0,0,
0,0,0,0,0,0,0,0,0,0,0,0,0,0,0,0,0,0,0,236,237,238,239,0,0,0,0,0,0,0,0,0,0,0,0,0,0,0,0,0,
0,0,0,0,0,0,0,0,309,0,0,0,0,0,0,0,125,0,0,0,0,0,0,77,78,0,0,0,0,0,0,0,306,0,0,0,0,0,0,0,
0,0,0,0,0,0,0,0,0,0,0,0,0,0,0,0,141,0,0,0,0,0,0,93,94,0,0,0,0,0,0,0,0,0,0,0,0,0,0,0,
0,0,0,0,0,0,0,0,0,0,0,0,0,0,0,0,0,0,0,0,0,0,0,0,0,0,0,0,0,0,0,0,0,0,0,0,0,0,0,0,
0,0,0,0,0,0,0,0,0,0,0,0,0,0,0,0,0,0,0,0,0,0,0,0,0,0,0,0,0,0,0,0,0,0,0,0,0,0,0,0,
0,0,0,0,0,0,0,0,0,0,0,0,306,0,0,0,0,0,0,0,0,0,0,0,0,0,0,0,0,0,0,0,0,0,0,0,0,0,0,0,
0,0,0,0,0,0,0,0,0,0,0,0,0,0,0,0,0,0,0,0,0,0,0,0,0,0,0,0,0,306,0,0,0,0,0,0,0,0,0,0,
0,0,0,0,0,0,0,0,0,0,0,0,0,0,0,0,0,0,0,0,0,0,0,0,0,0,0,0,0,0,0,0,0,0,0,0,0,0,0,0,
0,0,0,0,0,0,0,0,0,0,0,0,0,0,0,0,309,0,0,0,0,0,0,0,0,0,0,0,0,0,0,0,0,0,0,0,0,0,0,0,
0,0,0,0,0,0,0,0,0,0,0,0,0,0,0,0,0,0,0,0,0,0,0,0,0,0,0,0,0,0,0,0,0,0,0,0,0,0,0,0,
0,0,0,0,0,0,0,0,0,0,0,0,0,0,0,0,0,0,0,0,0,0,0,0,0,0,0,0,0,0,0,0,0,0,0,0,0,0,0,0,
0,0,0,0,0,0,0,0,0,0,0,0,0,0,0,0,0,0,0,0,0,0,0,0,0,0,0,0,0,0,0,0,0,0,0,0,0,0,0,0,
0,0,0,0,0,0,0,0,0,0,0,0,0,0,0,0,0,0,0,0,0,0,0,0,0,0,0,0,0,0,0,0,0,0,0,0,0,0,0,0,
0,0,0,0,0,0,0,0,0,0,0,0,0,0,0,0,0,0,0,0,0,0,0,0,0,0,0,0,0,0,0,0,0,0,0,0,0,0,0,0,
0,0,0,0,0,0,0,0,0,0,0,0,0,0,0,0,0,0,0,0,0,0,0,0,0,0,0,0,0,0,0,0,0,0,0,0,0,0,0,0,
0,0,0,0,0,0,0,0,0,0,0,0,0,0,0,0,0,0,0,0,0,0,0,0,0,0,0,0,0,0,0,0,0,0,0,0,0,0,0,0,
0,0,0,0,0,0,0,0,0,0,0,0,0,0,0,0,0,0,0,0,0,0,0,0,0,0,0,0,0,0,0,0,0,0,0,0,0,0,0,0,
0,0,0,0,0,0,0,0,0,0,0,0,0,0,0,0,0,0,0,0,0,0,0,0,0,0,0,0,0,0,0,0,0,0,0,0,0,0,0,0,
0,0,0,0,0,0,0,0,0,0,0,0,0,0,0,0,0,0,0,0,0,0,0,0,0,0,0,0,0,0,0,0,0,0,0,0,0,0,0,0,
0,0,0,0,0,0,0,0,0,0,0,0,0,0,0,0,0,0,0,0,0,0,0,0,0,0,0,0,0,0,0,0,0,0,0,0,0,0,0,0
</data>
 </layer>
 <objectgroup id="3" name="Capa de Objetos 1">
  <object id="11" x="226.667" y="408" width="92" height="90.6667"/>
  <object id="12" x="924" y="284" width="108" height="89.3333"/>
  <object id="13" x="257.333" y="673.333" width="33.3333" height="29.3333"/>
  <object id="14" x="482.667" y="578.667" width="29.3333" height="61.3333"/>
  <object id="15" x="544" y="501.333" width="73.3333" height="36"/>
  <object id="16" x="705.333" y="497.333" width="64" height="38.6667"/>
  <object id="17" x="802.667" y="574.667" width="29.3333" height="65.3333"/>
  <object id="18" x="733.333" y="673.333" width="36" height="61.3333"/>
  <object id="19" x="516" y="674.667" width="29.3333" height="57.3333"/>
  <object id="20" x="894.667" y="460" width="66.6667" height="42.6667"/>
  <object id="21" x="801.333" y="385.333" width="30.6667" height="28"/>
  <object id="22" x="512" y="321.333" width="36" height="30.6667"/>
  <object id="23" x="936" y="841.333" width="17.3333" height="14.6667"/>
  <object id="24" x="514.667" y="900" width="30.6667" height="25.3333"/>
 </objectgroup>
</map>
